assets/static/svgs/currencies/icon-gb-pound-sterling.svg

<svg width="1em" height="1em"  viewBox="0 0 24 24" fill="none" xmlns="http://www.w3.org/2000/svg">
<symbol id="item"
width="1em"
height="1em"
viewBox="0 0 24 24"
fill="none"
>
 <path d="M12 24C18.6274 24 24 18.6274 24 12C24 5.37258 18.6274 0 12 0C5.37258 0 0 5.37258 0 12C0 18.6274 5.37258 24 12 24Z" fill="#274DD4"/> <path d="M15.8 17.5002H7.89999V15.8002C8.89999 15.5002 9.39999 15.0002 9.39999 13.9002V12.8002H7.89999V11.5002H9.39999V10.0002C9.39999 9.0002 9.69999 8.2002 10.3 7.6002C10.9 7.0002 11.5 6.7002 12.8 6.7002C14.1 6.7002 15.2 7.1002 16.1 9.0002L14.6 9.9002C14.2 8.9002 13.8 8.6002 13.1 8.6002C12.4 8.6002 11.7 9.2002 11.7 10.3002V11.6002H13.7V12.8002H11.7V13.6002C11.7 14.5002 11.6 15.1002 10.9 15.7002H15.9L15.8 17.5002Z" fill="#F9F7F7" stroke="#E52931" stroke-width="0.25" stroke-miterlimit="10"/> 
</symbol>
</svg>

<svg width="1em" height="1em"    viewBox="0 0 24 24" fill="none" xmlns="http://www.w3.org/2000/svg">
<symbol id="item"
width="1em"
height="1em"
viewBox="0 0 24 24"
fill="none"
>
<path d="M12 24c6.627 0 12-5.373 12-12S18.627 0 12 0 0 5.373 0 12s5.373 12 12 12Z" fill="#274DD4"/><path d="M15.8 17.5H7.9v-1.7c1-.3 1.5-.8 1.5-1.9v-1.1H7.9v-1.3h1.5V10c0-1 .3-1.8.9-2.4.6-.6 1.2-.9 2.5-.9s2.4.4 3.3 2.3l-1.5.9c-.4-1-.8-1.3-1.5-1.3s-1.4.6-1.4 1.7v1.3h2v1.2h-2v.8c0 .9-.1 1.5-.8 2.1h5l-.1 1.8Z" fill="#F9F7F7" stroke="#E52931" stroke-width=".25" stroke-miterlimit="10"/>
</symbol>
</svg>
